X: 02022
T: Jenny's Bawbee
R:strathspey
B:RSCDS 2-2(b)
B:Joshua Campbell's 1778 collection p.79 (first known Scottish printing)
Z:1997 by John Chambers <jc:trillian.mit.edu>
M:C
L:1/8
K:A
|: c>d \
| "A"e>f e>d "(F#m)"c<A A>c | "Bm"d>F B>A "E7"G<E E2 \
| "A"e>f e>d "(F#m)"c<A c<e | "D"F<F "E7"G>E "A"A2 :|
|: A>B \
| "A"c>A "E7"d>B "A(F#m)"c<A A>c | "Bm"d>F B>A "E7"G<E E2 \
| "A"c>A "E7"d>B "A(F#m)"c<A c<e |1 "D"F<F "E7"G>E "A"A2 \
:|2 "D"f<f "E7"g>e "A"a2 :|
%%center Book02/02022-Jennys_Bawbee-1.abc

%%sep 1 1 500
%%sep 1 1 500

